X: 4925
T: Breakdown
R: reel
M: 4/4
K: Amajor
a2 A2 AcBA|E2 A2 AcBA|F2 B2 BcBA|GABc defg|
a2 A2 AcBA|E2 A2 AcBA|GABc defg|a6:|
A2 a2 A2 a2|A2 AB cB A2|E2 e2 E2 e2|E2 GB edcB|
A2 a2 A2 a2|A2 AB cB A2|E2 GB edcB|A2 a2 A2:|

